X: 39
T: O Connor
T: O'Connor
C: Carolan
%R: jig
B: "The Hibernian Muse" p.24 #1
F: http://imslp.org/wiki/The_Hibernian_Muse_%28Various%29
Z: 2015 John Chambers <jc:trillian.mit.edu>
P: No. XXXIX.
M: 6/8
L: 1/8
K: G
% - - - - - - - - - - - - - - - - - - - - - - - - - - - - -
V: 1
|:\
(B/c/d/B/)G GBG | c2d efg | Tfed ded | TBAG G2D |\
G2d (B/c/d)B | c2e fga | Tf2d dfd | B2A G2z :|
d/c/ |\
Bcd dBG | gGG G2d/c/ | Bcd def | aAA A2b |\
.c'(a/b/c') .b(g/a/b) | afd dfd | (e/f/g)e (f/g/a)f | g3 g2 |]
d |\
efg gag | bc'b afd | fga aba | Tg>fe dBG |\
GBG (A/B/c)A | AcA (B/c/d)B | Bdg Tfdf | g3 g2 |]
% - - - - - - - - - - - - - - - - - - - - - - - - - - - - -
V: 2 clef=bass middle=d
|:\
g3 G3 | e3 c3 | d3 f3 | g3 G3 |\
g3 g3 | e2c d3 | d'3 d3 | g3 G2z :|
f |\
g3 G3 | B3 G3 | g3 d3 | c3 A2z |\
a3 g3 | f3 d3 | c3 d3 | gdB G2 |]
z |\
c3 e3 | g3 f3 | d3 f3 | a3 b3 |\
B3 d3 | f3 g3 | d3 d3 | gdB G2 |]

%%sep 2 1 500
%%sep 1 1 500

